X:32
T:Hoffed ap Hywel [Powell's Fancy]>Breuddwyd y Wrach [the witch's dream]
R:slip jig
Z:Lesl
M:9/8
L:1/8
K:G
g2e dBG dBG|g2e dBG c2A|g2e dBG dBG|ABc BAG FED:|
|:G2B BGB BGB|G2B BGB AFD|G2B BGB BGB|ABc BAG FED:||
K:D
|:dfd f2g afd|dfd f2d ecA|dfd f2g afd|faf gec d3:|
|:AcA c2d ecA|fef c2d ecA|AcA c2d ecA|fef gec d3:|
